!!!!SEGMENT: pl-wtm--r-1406_stefani-jozef--walc.krn
!!!cenid: 18xx:1880
!!!COM: Stefani, Józef
!!!COM-rismID: pe30024097
!!!CDT: 1800/04/16-1876/03/19
!!!CNT: Polish
!!!OTL: Walc
!!!PDT:
!!!AGN: Secular; Waltz
!!!SMS-siglum: PL-Wtm
!!!SMS-shelfmark: R 1406
!!!SMS-shelfwork: W
!!!SMS-variant:
!!!SMS-altvar:
!!!NIFC-rismSourceID: 1001117996
!!!NIFC-rismChildID: 1001117996
!!!NIFC-islandoraID: pl-wtm:25479
!!!URL-pdf-islandora: https://repozytorium.nifc.pl/islandora/object/pl-wtm%3A25479/datastream/PDF/view
!!!URL-scan: https://polish.musicsources.pl/pl/lokalizacje/galeria/rekopisy/6236 @EN{Scan on Polish Music Sources Website} @PL{Skany w portalu Dziedzictwo Muzyki Polskiej w otwartym dostępie}
!!!ONB-nifc:
!!!AIN: 2 piano
!!!key:
**kern	**kern	**dynam
*part2	*part1	*part1
*staff2	*staff1	*
*Ipiano	*Ipiano	*
*I"[Piano]	*I"[Piano]	*
*I'pf	*I'pf	*
*clefF4	*clefG2	*
*k[b-]	*k[b-]	*
*F:	*F:	*
*M3/4	*M3/4	*
*>[A,B,B,C]	*	*
*>A	*	*
4r	[4cc\	.
=1	=1	=1
4C/	4cc\]	.
!	!LO:TX:b:t=6	!
4c\, 4B-\ 4G\	4aa'\	.
!	!LO:TX:b:t=7	!
4c\ 4B-\ 4G\	4bb-'\	.
=2	=2	=2
*rep	*	*
*	*2\right	*
!	!LO:TX:b:t=3	!
4C/	(2ee\	.
!	!LO:TX:b:t=1	!
4c\ 4B-\ 4G\	.	.
4c\ 4B-\ 4G\	4cc\	.
*Xrep	*	*
=3	=3	=3
4FF/	4cc\)	.
4c\ 4A\ 4F\	4gg#X'\	.
4c\ 4A\ 4F\	4aa'\	.
=4	=4	=4
*rep	*	*
4FF/	(2ff\	.
4c\ 4A\ 4F\	.	.
4c\ 4A\ 4F\	4cc\)	.
*Xrep	*	*
=5	=5	=5
4C\	(4ff\	.
4c\ 4B-\ 4G\	4ee\	.
4c\ 4B-\ 4G\	4dd\	.
=6	=6	=6
*rep	*	*
4C\	4cc\	.
4c\ 4B-\ 4G\	4dd\	.
4c\ 4B-\ 4G\	4ee\	.
*Xrep	*	*
!!LO:LB:g=original
=7	=7	=7
4FF/	4ff\)	.
4c\ 4A\ 4F\	4aa\ 4a'\	.
4c\ 4A\ 4F\	4ddd\ 4dd'\	.
=8	=8	=8
*rep	*	*
4FF/	(2ccc\ 2cc\	.
4c\ 4A\ 4F\	.	.
4c\ 4A\ 4F\	4aa\ 4a\)	.
*Xrep	*	*
=9	=9	=9
4C\	4cc'\	.
4c\ 4B-\ 4G\	4aa'\	.
4c\ 4B-\ 4G\	4bb-'\	.
=10	=10	=10
*rep	*	*
4C\	(2ee\	.
4c\ 4B-\ 4G\	.	.
4c\ 4B-\ 4G\	[4cc\)	.
*Xrep	*	*
=11	=11	=11
4FF/	4cc\]	.
4c\ 4A\ 4F\	4gg#X'\	.
4c\ 4A\ 4F\	4aa'\	.
=12	=12	=12
*rep	*	*
4FF/	(2ff\	.
4c\ 4A\ 4F\	.	.
4c\ 4A\ 4F\	4cc\)	.
*Xrep	*	*
!!LO:LB:g=original
=13	=13	=13
4C\	(4ff\	.
4c\ 4B-\ 4G\	4ee\	.
4c\ 4B-\ 4G\	4dd\	.
=14	=14	=14
*rep	*	*
4C\	4cc\	.
4c\ 4B-\ 4G\	4dd\	.
4c\ 4B-\ 4G\	4ee\	.
*Xrep	*	*
=15	=15	=15
4FF/	4ff\)	.
4c\ 4A\ 4F\	4cc\	.
4c\ 4A\ 4F\	4aa\	.
=16	=16	=16
4c\ 4A\ 4F\	4ff\	.
4r	4r	.
=||	=||	=||
!	!LO:TUP:a:problem=klamra łukowa i cyfra	!
4r	12ccc\L	.
.	12ddd\	f
.	12eee\J	.
=17	=17	=17
4F/ 4FF/	4fff\	.
4c\ 4A\ 4F\	8ccc\L 8aa\ 8ff'\	.
.	8ccc\J 8aa\ 8ff'\	.
4c\ 4A\ 4F\	4ccc\ 4aa\ 4ff'\	.
=18	=18	=18
*rep	*	*
4F/ 4FF/	4ccc\ 4aa\ 4ff'\	.
4c\ 4A\ 4F\	8aa\L 8ff\ 8cc'\	.
.	8aa\J 8ff\ 8cc'\	.
4c\ 4A\ 4F\	4aa\ 4ff\ 4cc'\	.
*Xrep	*	*
!!LO:LB:g=original
=19	=19	=19
4F/ 4FF/	4aa\ 4ff\ 4cc'\	.
4c\ 4A\ 4F\	8ff\L 8cc\ 8a'\	.
.	8ff\J 8cc\ 8a'\	.
4c\ 4A\ 4F\	4ff\ 4cc\ 4a'\	.
=20	=20	=20
*rep	*	*
4F/ 4FF/	2ff\ 2cc\ 2a'\	.
4c\ 4A\ 4F\	.	.
4c\ 4A\ 4F\	4aa\ 4a'\	.
*Xrep	*	*
=21	=21	=21
.	((8qaa/ 8qa/	mf
4C\	4gg\ 4g\))	.
4c\ 4B-\ 4G\ 4E\	4ff#X\ 4f#X'\	.
4c\ 4B-\ 4G\ 4E\	4gg\ 4g'\	.
=22	=22	=22
*rep	*	*
4C\	(>(>2ddd\ 2dd^<\	.
4c\ 4B-\ 4G\ 4E\	.	.
4c\ 4B-\ 4G\ 4E\	4ccc\ 4cc\))	.
*Xrep	*	*
=23	=23	=23
4F\	(4bbn\ 4bn\	.
4c\ 4A\	4ccc\ 4cc\)	.
4c\ 4A\	4ggg\ 4gg'\	.
!!LO:LB:g=original
=24	=24	=24
4F\	2fff\ 2ff\	.
4c\ 4A\	.	.
!	!LO:TUP:a:problem=klamra łukowa	!
4c\ 4A\	(12aa\L	.
.	12ddd\	.
.	12eee\J	.
=25	=25	=25
4F/ 4FF/	4fff\)	.
4c\ 4A\ 4F\	8ccc\L 8aa\ 8ff\	.
.	8ccc\J 8aa\ 8ff\	.
4c\ 4A\ 4F\	4ccc\ 4aa\ 4ff\	.
=26	=26	=26
*rep	*	*
4F/ 4FF/	4ccc\ 4aa\ 4ff\	.
4c\ 4A\ 4F\	8aa\L 8ff\ 8cc\	.
.	8aa\J 8ff\ 8cc\	.
4c\ 4A\ 4F\	4aa\ 4ff\ 4cc\	.
*Xrep	*	*
=27	=27	=27
*rep	*	*
4F/ 4FF/	4aa\ 4ff\ 4cc\	.
4c\ 4A\ 4F\	8ff\L 8cc\ 8a\	.
.	8ff\J 8cc\ 8a\	.
4c\ 4A\ 4F\	4ff\ 4cc\ 4a\	.
*Xrep	*	*
=28	=28	=28
*rep	*	*
4F/ 4FF/	2ff\ 2cc\ 2a\	.
4c\ 4A\ 4F\	.	.
4c\ 4A\ 4F\	4aa\ 4a\	.
*Xrep	*	*
!!LO:LB:g=original
=29	=29	=29
.	((8qbbn/ 8qbn/	mf
4E/ 4EE/	4aa\ 4a\))	.
4c\ 4A\ 4E\	4gg#X\ 4g#X'\	.
4c\ 4E\	4aa\ 4a'\	.
=30	=30	=30
4E/ 4EE/	(>(>2ccc\ 2cc^<\	.
4d\ 4G#X\ 4E\	.	.
4d\ 4G#\ 4E\	4bbn\ 4bn\))	.
=31	=31	=31
*	*^	*
4c\ 4A\	4aa\ 4a'\	4ryy	.
4r	4ee'\	4ryy	.
4d\ 4G#X\ 4E\	(8ccc/L	4ee\	.
.	8bbn/J)	.	.
*	*v	*v	*
=32	=32	=32
4c\ 4A\	4aa\ 4ee\	.
4r	4r	.
!!LO:PB:g=original
=||	=||	=||
4r	[4cc\	p
=33	=33	=33
4C\	4cc\]	.
4c\ 4B-\ 4G\	4aa'\	.
4c\ 4B-\ 4G\	4bb-'\	.
=34	=34	=34
*rep	*	*
4C\	((2ee\	.
4c\ 4B-\ 4G\	.	.
4c\ 4B-\ 4G\	[4cc\)	.
*Xrep	*	*
=35	=35	=35
4FF/	4cc\])	.
4c\ 4A\ 4F\	4gg#X'\	.
4c\ 4A\ 4F\	4aa'\	.
=36	=36	=36
*rep	*	*
4FF/	(2ff\	.
4c\ 4A\ 4F\	.	.
4c\ 4A\ 4F\	4cc\)	.
*Xrep	*	*
=37	=37	=37
4C/	(4ff\	.
4c\ 4B-\ 4G\	4ee\	.
4c\ 4B-\ 4G\	4dd\	.
=38	=38	=38
*rep	*	*
4C/	4cc\	.
4c\ 4B-\ 4G\	4dd\	.
4c\ 4B-\ 4G\	4ee\	.
*Xrep	*	*
!!LO:LB:g=original
=39	=39	=39
4FF/	4ff\)	.
4c\ 4A\ 4F\	4aa\ 4a'^<\	.
4c\ 4A\ 4F\	4ddd\ 4dd'^<\	.
=40	=40	=40
*rep	*	*
4FF/	(>(>2ccc\ 2cc^<\	.
4c\ 4A\ 4F\	.	.
4c\ 4A\ 4F\	4aa\ 4a\))	.
*Xrep	*	*
=41	=41	=41
4C\	4cc\	.
4c\ 4B-\ 4G\	4aa'\	.
4c\ 4B-\ 4G\	4bb-'\	.
=42	=42	=42
*rep	*	*
4C\	((2ee\	.
4c\ 4B-\ 4G\	.	.
4c\ 4B-\ 4G\	[4cc\)	.
*Xrep	*	*
=43	=43	=43
4FF/	4cc\]	.
4c\ 4A\ 4F\	4gg#X')\	.
4c\ 4A\ 4F\	4aa'\	.
=44	=44	=44
*rep	*	*
4FF/	(2ff\	.
4c\ 4A\ 4F\	.	.
4c\ 4A\ 4F\	4cc\)	.
*Xrep	*	*
!!LO:LB:g=original
=45	=45	=45
4BB-\	4dd'\	.
4B-\ 4G\ 4D\	(4bb-T\	.
4B-\ 4G\ 4D\	4gg\)	.
=46	=46	=46
4C\	4cc'\	.
4c\ 4A\ 4F\	(4aat\	.
4c\ 4A\ 4F\	4ff\)	.
=47	=47	=47
4C\	(8ff\L	.
.	8een\J)	.
4c\ 4B-\ 4G\	4dd'\	.
4c\ 4B-\ 4G\	4ee'\	.
=48	=48	=48
4c\ 4A\ 4F\	4ff\	.
4r	4r	.
=48||	=48||	=||
*k[b-e-]	*k[b-e-]	*
4r	4ff\ 4dd'\	f
=49	=49	=49
8BB-\L	2ff\ 2dd'\	.
(8B-\	.	.
8F\	.	.
8B-\	.	.
8F\	(8dd\L 8b-\	.
8B-\J)	8ee-\J 8cc\	.
!!LO:LB:g=original
=50	=50	=50
8BB-\L	2ff\ 2dd\)	.
(8B-\	.	.
8F\	.	.
8B-\	.	.
8F\	4bb-\ 4dd\	.
8B-\J)	.	.
=51	=51	=51
*rep	*	*
8BB-\L	2ff\ 2dd\	.
(8B-\	.	.
8F\	.	.
8B-\	.	.
8F\	(8dd\L 8b-\	.
8B-\J)	8gg\J 8ee-\	.
*Xrep	*	*
=52	=52	=52
*rep	*	*
8BB-\L	4ff\ 4dd\)	.
(8B-\	.	.
8F\	4r	.
8B-\	.	.
8F\	4ff\ 4dd'\	.
8B-\J)	.	.
*Xrep	*	*
=53	=53	=53
8FF\L	(8ff\L 8dd\	.
(8F\	8ee-\ 8cc\	.
8E-\ 8C\	8dd\ 8bn\	.
8F\	8ee-\ 8cc\	.
8E-\ 8C\	8ff\ 8dd\	.
8F\J)	8ee-\J 8cc\)	.
=54	=54	=54
*rep	*	*
8FF\L	(>(>2aa\ 2ff^<\	.
(8F\	.	.
8E-\ 8C\	.	.
8F\	.	.
8E-\ 8C\	4gg\ 4ee-\))	.
8F\J)	.	.
*Xrep	*	*
!!LO:LB:g=original
=55	=55	=55
8BB-\L	(8gg\L 8ee-\	.
(8B-\	8ff\ 8dd\	.
8F\	8een\ 8cc#X\	.
8B-\	8ff\ 8dd\	.
8F\	8gg\ 8ee\	.
8B-\J)	8ff\J 8dd\)	.
=56	=56	=56
*rep	*	*
8BB-\L	4dd\ 4b-\	.
(8B-\	.	.
8F\	4r	.
8B-\	.	.
8F\	4ff\ 4dd'\	.
8B-\J)	.	.
*Xrep	*	*
=57	=57	=57
*rep	*	*
8BB-\L	2ff\ 2dd'\	.
(8B-\	.	.
8F\	.	.
8B-\	.	.
8F\	(8dd\L 8b-\	.
8B-\J)	8ee-\J 8cc\	.
*Xrep	*	*
=58	=58	=58
*rep	*	*
8BB-\L	2ff\ 2dd\)	.
(8B-\	.	.
8F\	.	.
8B-\	.	.
8F\	4bb-\ 4dd\	.
8B-\J)	.	.
*Xrep	*	*
=59	=59	=59
*rep	*	*
8BB-\L	2ff\ 2dd\	.
(8B-\	.	.
8F\	.	.
8B-\	.	.
8F\	(8dd\L 8b-\	.
8B-\J)	8gg\J 8ee-\)	.
*Xrep	*	*
!!LO:LB:g=original
=60	=60	=60
8BB-\L	4ff\ 4dd\	.
(8B-\	.	.
8F\	4r	.
8B-\	.	.
8F\	4ff\ 4dd'\	.
8B-\J)	.	.
=61	=61	=61
8FF\L	(8ff\L 8dd\	.
(8F\	8ee-\ 8cc\	.
8E-\ 8C\	8dd\ 8bn\	.
8F\	8ee-\ 8cc\	.
8E-\ 8C\	8ff\ 8dd\	.
8F\J)	8ee-\J 8cc\)	.
=62	=62	=62
*rep	*	*
8FF\L	(8aa\L 8ff\	.
(8F\	8gg\ 8ee-\	.
8E-\ 8C\	8ff\ 8dd\	.
8F\	8ee-\ 8cc\	.
8E-\ 8C\	8dd\ 8b-\	.
8F\J)	8cc\J 8a\)	.
*Xrep	*	*
=63	=63	=63
8BB-\L	(8b-\L	.
(8F\	8dd\	.
8D\	8ff\	.
8F\	8bb-\	.
8E-\ 8C\ 8FF\	8ddd\ 8ff\	.
8F\J)	8ccc\J 8ee-\)	.
=64	=64	=64
4D/ 4BB-/	4bb-\ 4dd\	.
4r	4r	.
!!LO:PB:g=original
=||	=||	=||
*k[b-]	*k[b-]	*
4r	[4cc\	p
=65	=65	=65
4C/	4cc\]	.
4c\ 4B-\ 4G\	4aa'\	.
4c\ 4B-\ 4G\	4bb-'\	.
=66	=66	=66
*rep	*	*
4C/	(2ee\	.
4c\ 4B-\ 4G\	.	.
4c\ 4B-\ 4G\	[4cc\)	.
*Xrep	*	*
=67	=67	=67
4FF/	4cc\]	.
4c\ 4A\ 4F\	4gg#X'\	.
4c\ 4A\ 4F\	4aa'\	.
=68	=68	=68
*rep	*	*
4FF/	(2ff\	.
4c\ 4A\ 4F\	.	.
4c\ 4A\ 4F\	4cc\)	.
*Xrep	*	*
=69	=69	=69
4C\	(4ff\	.
4c\ 4B-\ 4G\	4ee\	.
4c\ 4B-\ 4G\	4dd\)	.
=70	=70	=70
*rep	*	*
4C\	(4cc\	.
4c\ 4B-\ 4G\	4dd\	.
4c\ 4B-\ 4G\	4ee\	.
*Xrep	*	*
!!LO:LB:g=original
=71	=71	=71
4FF/	4ff\)	.
4c\ 4A\ 4F\	4aa\ 4a'\	.
4c\ 4A\ 4F\	4ddd\ 4dd'\	.
=72	=72	=72
*rep	*	*
4FF/	(2ccc\ 2cc\)	.
4c\ 4A\ 4F\	.	.
4c\ 4A\ 4F\	4aa\ 4a\))	.
*Xrep	*	*
=73	=73	=73
4C/	4cc'\	.
4c\ 4B-\ 4G\	4aa'\	.
4c\ 4B-\ 4G\	4bb-'\	.
=74	=74	=74
*rep	*	*
4C/	(2ee\	.
4c\ 4B-\ 4G\	.	.
4c\ 4B-\ 4G\	4cc\)	.
*Xrep	*	*
=75	=75	=75
4FF/	4cc'\	.
4c\ 4A\ 4F\	4gg#X'\	.
4c\ 4A\ 4F\	4aa'\	.
=76	=76	=76
*rep	*	*
4FF/	(2ff\	.
4c\ 4A\ 4F\	.	.
4c\ 4A\ 4F\	4cc\)	.
*Xrep	*	*
!!LO:LB:g=original
=77	=77	=77
4BB-/	4dd'\	.
4B-\ 4F\ 4D\	(4bb-T\	.
4B-\ 4F\ 4D\	4gg\)	.
=78	=78	=78
4C\	4cc'\	.
4c\ 4A\ 4F\	(4aat\	.
4c\ 4A\ 4F\	4ff\)	.
=79	=79	=79
4C\	8ff\L	.
.	8ee\J	.
4c\ 4B-\ 4G\	4dd\	.
4c\ 4B-\ 4G\	4ee\	.
=80	=80	=80
4c\ 4A\ 4F\	4ff\	.
4r	4r	.
=!|:	=!|:	=!|:
*>B	*	*
4r	4ff\ 4f\	f
=81	=81	=81
4D-X/ 4DD-X/	4ff\ 4f\	mf
4A-X\ 4F\ 4D-\	8ff\L 8f'\	.
.	8ff\ 8f'\	.
4A-\ 4F\ 4D-\	8ff\ 8f'\	.
.	8ff\J 8f'\	.
=82	=82	=82
4C/ 4CC/	2.aa-X\ 2.a-X^<\	.
4A-X\ 4E-X\ 4C\	.	.
4A-\ 4E-\ 4C\	.	.
!!LO:LB:g=original
=83	=83	=83
4D-X/ 4DD-X/	4ff\ 4f\	.
*	*tremolo	*
4A-X\ 4F\ 4D-\	8ff\L 8f'\	.
.	8ff\ 8f'\	.
4A-\ 4F\ 4D-\	8ff\ 8f'\	.
.	8ff\J 8f'\	.
*	*Xtremolo	*
=84	=84	=84
4C/ 4CC/	2.aa-X\ 2.a-X^<\	.
4A-X\ 4E-X\ 4C\	.	.
4A-\ 4E-\ 4C\	.	.
=85	=85	=85
*^	*	*
*	*	*tremolo	*
4r	2.BB-\	4ddd-X\ 4dd-X\	f
4G/ 4D-X/	.	8ddd-\L 8dd-\	.
.	.	8ddd-\ 8dd-\	.
4G/ 4D-/	.	8ddd-\ 8dd-\	.
.	.	8ddd-\J 8dd-\	.
*	*	*Xtremolo	*
*v	*v	*	*
=86	=86	=86
4EE-X/	2.gg\ 2.g\	.
4G\ 4E-X\ 4D-X\ 4BB-\	.	.
4G\ 4E-\ 4D-\ 4BB-\	.	.
=87	=87	=87
4AA-X/	4aa-X\ 4a-X\	.
4A-X\ 4E-X\ 4C\	(4ccc\ 4cc\	.
4A-\ 4E-\ 4C\	4bb-\ 4b-\	.
=88	=88	=88
4AA-X/	2aa-X\ 2a-X\)	>
4A-X\ 4E-X\ 4C\	.	]
4A-\ 4E-\ 4C\	4gg-X\ 4g-X\	.
!!LO:LB:g=original
=89	=89	=89
*^	*	*
4r	2.D-X\	4ff\ 4f\	mf
*	*	*tremolo	*
4A-X/ 4F/	.	8ff\L 8f'\	.
.	.	8ff\ 8f'\	.
4A-/ 4F/	.	8ff\ 8f'\	.
.	.	8ff\J 8f'\	.
*	*	*Xtremolo	*
=90	=90	=90	=90
4r	2.C\	2.aa-X\ 2.a-X^<\	.
4A-X/ 4E-X/	.	.	.
4A-/ 4E-/	.	.	.
=91	=91	=91	=91
4r	2.D-X\	4ff\ 4f\	.
*	*	*tremolo	*
4A-X/ 4F/	.	8ff\L 8f'\	.
.	.	8ff\ 8f'\	.
4A-/ 4F/	.	8ff\ 8f'\	.
.	.	8ff\J 8f'\	.
*	*	*Xtremolo	*
=92	=92	=92	=92
4r	2.C\	2.gg\ 2.g^<\	.
4Bn/ 4G/ 4F/	.	.	.
4B/ 4G/ 4F/	.	.	.
*v	*v	*	*
=93	=93	=93
4C\	4aan\ 4an\	f
4c\ 4An\ 4F\	8ccc\L 8cc'\	.
.	8ccc\ 8cc'\	.
4c\ 4A\ 4F\	8ccc\ 8cc'\	.
!	!LO:TX:t=P:problem=skreślone takty	!
.	8ccc\J 8cc'\	.
!!LO:LB:g=original
=94	=94	=94
.	(8qdd/	.
4C\	(4.ddd\)	.
4c\ 4A\ 4F\	.	.
.	8ccc\L	.
4c\ 4A\ 4F\	8bbn\	.
.	8ccc\J)	.
=95	=95	=95
4C\	(4.ddd\	.
4c\ 4B-\ 4E\	.	.
.	8ccc\L	.
4c\ 4B-\ 4E\	8bb-X\	.
.	8gg\J)	.
=	=	=
4c\ 4A\ 4F\	4ff\	.
4r	4r	.
=96:|!	=96:|!	=96:|!
*>C	*	*
!	!LO:TUP:a:problem=klamra łukowa	!
4r	12ccc\L	.
.	12ddd\	.
.	12eee\J	.
==	==	==
*-	*-	*-
!!!system-decoration: [(s1,s2)]
!!!RDF**kern: > = above
!!!RDF**kern: < = below
!!!EED: Leszek Kubiak
!!!EEV: 2021-05-10
!!!ENC: Krzysztof Stępień
!!!END: 2021-04-10
!!!YEC: Copyright 2022 Narodowy Instytut Fryderyka Chopina (https://polishscores.org)
!!!YEM: License CC-BY-4.0 (https://creativecommons.org/licenses/by/4.0)
